!! 00000] TT[WS
!!!OTL: Qu Qiucai
!!!ARE: Asia, China,ÿShanxi Ningwu
!! Ethnic Group: Han
!! WI, 209
!!!SCT: J0247
!!!YEM: Copyright 1995, estate of Helmut Schaffrath.
**kern
*ICvox
*Ivox
*M2/4
*k[f#]
*G:
{8g
4g
8a
=1
8dd
8gg
8ee
8dd
=2
8ee
8dd
8b
8a
=3
4g
8ee
8dd}
=4
{8g
4g
8a
=5
8.dd
16gg
8ee
8dd
=6
8ee
8dd
8b
8a
=7
2g}
=8
{8dd
8dd
8gg
8b
=9
4.a
8b
=10
8dd
8dd
8a
8dd
=11
8b
8a
4g}
=12
{8g
8e
8g
8a
=13
8dd
8dd
8a
8g
=14
8g
8e
8d
8B
=15
8d
8G
8d
8A
=16
2G}
==
!!!AGN: Xiaodiao. Qingge, Aisu
!!!ONB: ESAC (Essen Associative Code) Database: CHINA
!!!AMT: simple duple
!!!AIN: vox
!!!EED: Helmut Schaffrath
!!!EEV: 1.0
*-
